X: 13299
T: Flagstone Of Memories
R: reel
M: 4/4
K: Gmajor
|:B3A BAGA|BD D2 EGGA|BD D2 EGGA|BddB A2 GA|
B3d BAGA|BD D2 EGGA|Bd d2 egge|dBAB G3 B:|
|:g3e f3d|e3d BAGA|(3Bcd ef gfgd|(3Bcd ef gdBd|
g3e f3d|e3d BAGA|Bd d2 egge|dBAB G4:|

